svgs/tachiyomi.svg

<svg width="24" height="24" viewBox="0 0 24 24" fill="none" xmlns="http://www.w3.org/2000/svg">
<path d="M10.1556 3.97778C10.1778 4.4 10.2 4.94815 10.2148 5.20741L10.2444 5.67407L7.08148 5.65185C5.34815 5.63704 3.86666 5.6 3.8 5.56296C3.67407 5.5037 3.66666 5.60741 3.66666 7.07407V8.64444L3.83703 8.6C4.32592 8.45926 6.3037 8.40741 11.8889 8.40741C17.4741 8.40741 19.4518 8.45926 19.9481 8.6L20.1111 8.64444V7.07407C20.1111 5.60741 20.1037 5.5037 19.9852 5.56296C19.9111 5.6 18.4296 5.63704 16.6963 5.65185L13.5333 5.67407L13.563 5.20741C13.5778 4.94815 13.6 4.4 13.6222 3.97778L13.6518 3.22222H10.1259L10.1556 3.97778V3.97778ZM6.91111 9.45926C6.14074 9.74815 5.51852 10.0296 5.51852 10.0741C5.51852 10.1259 5.62222 10.3926 5.74815 10.6741C6.34074 11.9852 7.27407 15.2296 7.53333 16.8667C7.57778 17.1852 7.65185 17.4444 7.69629 17.4444C7.74074 17.4444 8.46666 17.2074 9.31852 16.9185C10.4222 16.5333 10.8518 16.3556 10.8518 16.2741C10.8518 16.037 9.53333 11.7556 8.91111 9.97778C8.62963 9.19259 8.51111 8.92593 8.41481 8.93333C8.34815 8.93333 7.67407 9.17037 6.91111 9.45926V9.45926Z" fill="black"/>
<path d="M14.9407 9.4963C14.6963 11.0519 13.7852 14.0593 12.8074 16.5333L12.2963 17.8148H3V20.7778H21V17.8148H18.2519C16.0815 17.8148 15.5111 17.7926 15.5407 17.7185C15.563 17.6741 15.7407 17.2815 15.9333 16.8519C16.1185 16.4222 16.4889 15.4963 16.7481 14.7852C17.2444 13.4222 18.3333 10.0222 18.3333 9.82222C18.3333 9.72593 17.9926 9.61481 16.763 9.31111C15.8963 9.0963 15.1481 8.92593 15.1037 8.92593C15.0593 8.92593 14.9852 9.18519 14.9407 9.4963V9.4963Z" fill="black"/>
</svg>

<svg xmlns="http://www.w3.org/2000/svg" width="24" height="24" fill="none" viewBox="0 0 24 24"><path fill="#000" d="M10.156 3.978c.022.422.044.97.059 1.23l.03.466-3.164-.022C5.348 5.637 3.867 5.6 3.8 5.563c-.126-.06-.133.044-.133 1.511v1.57l.17-.044c.489-.14 2.467-.193 8.052-.193 5.585 0 7.563.052 8.06.193l.162.044v-1.57c0-1.467-.007-1.57-.126-1.511-.074.037-1.555.074-3.289.089l-3.163.022.03-.467c.015-.259.037-.807.06-1.23l.029-.755h-3.526l.03.756M6.91 9.459c-.77.29-1.392.57-1.392.615 0 .052.103.319.23.6.592 1.311 1.525 4.556 1.784 6.193.045.318.119.577.163.577.045 0 .77-.237 1.623-.525 1.103-.386 1.533-.563 1.533-.645 0-.237-1.319-4.518-1.94-6.296-.282-.785-.4-1.052-.497-1.045-.067 0-.74.237-1.504.526"/><path fill="#000" d="M14.94 9.496c-.244 1.556-1.155 4.563-2.133 7.037l-.51 1.282H3v2.963h18v-2.963h-2.748c-2.17 0-2.74-.022-2.711-.097.022-.044.2-.436.392-.866.186-.43.556-1.356.815-2.067.496-1.363 1.585-4.763 1.585-4.963 0-.096-.34-.207-1.57-.51-.867-.216-1.615-.386-1.66-.386-.044 0-.118.26-.162.57"/></svg>
